X: 33255
T: Pulling Sloes Under The Foliage Of The Trees
R: waltz
M: 3/4
K: Fmajor
FG|A2 AG FD|F2>G2 Ac|d2>e2 cA|G2 F2 F2|
F4 FG|A2 c2 de|f4 d2|e2 ed cA|
c2 d2 cA|G4 FG|A2 c2 de|
f4 d2|e2 ed cA|c2 d2 d2|
d2>e2 fe|d>c AG FD|F2>G2 Ac|
d2>e2 cA|G2 F2 F2|F4||

